16x16/panel/indicator-feedindicator-attention.svg

<svg xmlns="http://www.w3.org/2000/svg" width="16" height="16" version="1">
 <defs>
  <style id="current-color-scheme" type="text/css">
   .ColorScheme-Text { color:#323a41; } .ColorScheme-Highlight { color:#4285f4; } .ColorScheme-NeutralText { color:#ff9800; } .ColorScheme-PositiveText { color:#4caf50; } .ColorScheme-NegativeText { color:#f44336; }
  </style>
 </defs>
 <path style="fill:currentColor" class="ColorScheme-Text" d="M 1 1 L 1 3 C 2.1666667 3 5.3734978 3.7051371 8.0546875 5.5703125 C 10.735877 7.4354879 13 10.333333 13 15 L 15 15 C 15 9.6666667 12.264123 6.0645121 9.1953125 3.9296875 C 6.1265022 1.7948629 2.8333333 1 1 1 z M 1 6 L 1 8 C 4.5 8 8 10.533333 8 15 L 10 15 C 10 9.4666667 5.5 6 1 6 z"/>
 <path style="fill:currentColor" class="ColorScheme-Highlight" d="m 3,11 c -1.1069652,0 -2,0.895993 -2,2 0,1.104908 0.8930348,2 2,2 1.1043547,0 2,-0.895092 2,-2 -7.201e-4,-1.104007 -0.8956453,-2 -2,-2 z"/>
</svg>

<svg xmlns="http://www.w3.org/2000/svg" width="16" height="16" version="1"><path d="M1 1v2c1.167 0 4.373.705 7.055 2.57C10.735 7.435 13 10.333 13 15h2c0-5.333-2.736-8.935-5.805-11.07C6.127 1.795 2.833 1 1 1zm0 5v2c3.5 0 7 2.533 7 7h2c0-5.533-4.5-9-9-9z" fill="currentColor" color="#d3dae3"/><path d="M3 11c-1.107 0-2 .896-2 2a2 2 0 1 0 2-2z" fill="currentColor" color="#5294e2"/></svg>
